X: 1
T: Honga
R: honga
Z: 2010 John Chambers <jc:trillian.mit.edu>
S: printed MS of unknown origin
M: C|
L: 1/8
K: Gm
|: "Gm"GA BA cB AG | ^cd cd cB AB | GA BA cB AG | ^cd cd G2 z2 :|
"Gm"^cd ef gf ed | ^cd Bd cB AG | ^cd ef gf ed | ^cd ef g2 z2 | ^cd ef gf ed |
^cd Bd cB AG | "D"AB ^cd AB cd | ^cB (3AG^F "Gm"G2 z2 |
|: "Gm"d4- dc c=B | "Cm"c4- cB AG | "D"AB ^cd AB cd | ^cB (3AG^F "Gm"G2 z2 :|
|: "G"G8 | =B8 | d4 d4 | d4 d4 | "Gm"d2 ba ga b2 |
d2 ba ga b2 | d2 ba gf ef | "A"ef ag fe d2 | "Gm"^cd gf ed ce | "D"d^c BA "Gm"G2 z2 :|
